X:1
T:Title
%%score { 1 | 2 }
L:1/8
Q:1/4=100
M:6/8
K:Ab
V:1 treble nm="Grand Piano"
V:2 treble 
V:1
 c2 _c =c2 d | c2 B A3 | [FA]2 [DF] [FA]2 [Ad] | c6 | c2 d e2 c | [FB]2 [Fc] [Fd]3 | A2 A B2 G | %7
w: L.~E.~Jones * * *|||||||
 [CA]6 | B2 =A B3 | c2 _c =c3 | [Fd]2 [Ec] [GB]2 [F=d] | e3 d3 | [Ec]2 [EB] [EA]2 [EA] | %13
w: ||||||
 [FA]2 F E3 | A2 A c2 B | [CA]6 |] %16
w: |||
V:2
 [A,E]2 [A,=D] [A,E]2 [A,F] | [A,E]2[K:bass] [E,G,E] [F,A,C]3 | [D,D]2 [D,A,] [D,C]2 [F,D] | %3
 [A,EA]6 | [A,A]2 [A,B,A] [A,CA]2 [A,E] | [D,D]2 [C,=A,] [B,,B,]3 | %6
 [E,A,C]2 [E,A,C] [E,G,D]2 [E,B,D] | [A,,A,]6 | [E,G,E]2 [E,_G,E] [E,=G,E]3 | %9
 [A,E]2 [A,=D] [A,E]3 | [D,A,]2 [A,,A,] [B,,E,]2 [B,,A,] | [E,G,E]6 | %12
 [A,,A,]2 [B,,G,] [C,A,]2 [C,A,] | [D,A,]2 [F,A,D] [A,C]3 | [A,C]2 [F,A,C] [E,A,E]2 [E,G,D] | %15
 [A,,A,]6 |] %16

